svgs/regular/braille.svg

<svg xmlns="http://www.w3.org/2000/svg" viewBox="0 0 640 512"><!-- Font Awesome Pro 6.0.0-alpha2 by @fontawesome - https://fontawesome.com License - https://fontawesome.com/license (Commercial License) --><path d="M80 48C44.625 48 16 76.625 16 112S44.625 176 80 176S144 147.375 144 112S115.375 48 80 48ZM80 128C71.178 128 64 120.822 64 112S71.178 96 80 96S96 103.178 96 112S88.822 128 80 128ZM80 208C44.625 208 16 236.625 16 272S44.625 336 80 336S144 307.375 144 272S115.375 208 80 208ZM80 288C71.178 288 64 280.822 64 272S71.178 256 80 256S96 263.178 96 272S88.822 288 80 288ZM592 144C609.625 144 624 129.625 624 112S609.625 80 592 80S560 94.375 560 112S574.375 144 592 144ZM80 400C62.375 400 48 414.375 48 432S62.375 464 80 464S112 449.625 112 432S97.625 400 80 400ZM240 400C222.375 400 208 414.375 208 432S222.375 464 240 464S272 449.625 272 432S257.625 400 240 400ZM432 400C414.375 400 400 414.375 400 432S414.375 464 432 464S464 449.625 464 432S449.625 400 432 400ZM240 240C222.375 240 208 254.375 208 272S222.375 304 240 304S272 289.625 272 272S257.625 240 240 240ZM592 240C574.375 240 560 254.375 560 272S574.375 304 592 304S624 289.625 624 272S609.625 240 592 240ZM432 48C396.625 48 368 76.625 368 112S396.625 176 432 176S496 147.375 496 112S467.375 48 432 48ZM432 128C423.178 128 416 120.822 416 112S423.178 96 432 96S448 103.178 448 112S440.822 128 432 128ZM592 400C574.375 400 560 414.375 560 432S574.375 464 592 464S624 449.625 624 432S609.625 400 592 400ZM240 48C204.625 48 176 76.625 176 112S204.625 176 240 176S304 147.375 304 112S275.375 48 240 48ZM240 128C231.178 128 224 120.822 224 112S231.178 96 240 96S256 103.178 256 112S248.822 128 240 128ZM432 240C414.375 240 400 254.375 400 272S414.375 304 432 304S464 289.625 464 272S449.625 240 432 240Z"/></svg>

<svg xmlns="http://www.w3.org/2000/svg" viewBox="0 0 640 512"><!--! Font Awesome Pro 6.0.0-alpha3 by @fontawesome - https://fontawesome.com License - https://fontawesome.com/license (Commercial License) --><path d="M80 48c-35.38 0-64 28.62-64 64s28.62 64 64 64s64-28.62 64-64S115.4 48 80 48zM80 128C71.18 128 64 120.8 64 112S71.18 96 80 96S96 103.2 96 112S88.82 128 80 128zM80 208c-35.38 0-64 28.62-64 64s28.62 64 64 64s64-28.62 64-64S115.4 208 80 208zM80 288C71.18 288 64 280.8 64 272S71.18 256 80 256S96 263.2 96 272S88.82 288 80 288zM592 144c17.62 0 32-14.38 32-32s-14.38-32-32-32s-32 14.38-32 32S574.4 144 592 144zM80 400c-17.62 0-32 14.38-32 32s14.38 32 32 32s32-14.38 32-32S97.63 400 80 400zM240 400c-17.62 0-32 14.38-32 32s14.38 32 32 32s32-14.38 32-32S257.6 400 240 400zM432 400c-17.62 0-32 14.38-32 32s14.38 32 32 32s32-14.38 32-32S449.6 400 432 400zM240 240c-17.62 0-32 14.38-32 32s14.38 32 32 32s32-14.38 32-32S257.6 240 240 240zM592 240c-17.62 0-32 14.38-32 32s14.38 32 32 32s32-14.38 32-32S609.6 240 592 240zM432 48c-35.38 0-64 28.62-64 64s28.62 64 64 64s64-28.62 64-64S467.4 48 432 48zM432 128C423.2 128 416 120.8 416 112S423.2 96 432 96S448 103.2 448 112S440.8 128 432 128zM592 400c-17.62 0-32 14.38-32 32s14.38 32 32 32s32-14.38 32-32S609.6 400 592 400zM240 48c-35.38 0-64 28.62-64 64s28.62 64 64 64s64-28.62 64-64S275.4 48 240 48zM240 128C231.2 128 224 120.8 224 112S231.2 96 240 96S256 103.2 256 112S248.8 128 240 128zM432 240c-17.62 0-32 14.38-32 32s14.38 32 32 32s32-14.38 32-32S449.6 240 432 240z"/></svg>
